X:1
T:[ID 6-49b]
T:[ID 6-49b]
T:Bezeichnung standardisiert: Polonaise Polonoise 20.
T:Urheber unbekannt Datum in der hier transkribierten schriftlichen Quelle: 1775
C:Urheber unbekannt
C:Datum in der hier transkribierten schriftlichen Quelle: 1775
L:1/8
M:3/4
K:G
V:1 treble 
V:1
 B,/D/G/A/ BBBB | F/A/d/e/ f/d/B/G/ A2 | GG/B,/ AA/F/ B2 | c/B/A/G/ G2 F2 :: B2 A2 G2 | %5
 GC/B,/ CB,/A,/ B,2 | B>G A>F G2 | GG/B,/ CC/A,/ B,2 | B,/D/G/B,/ AF BG | c/A/F/D/ C2 B,2 :| %10

